src/raw/lift/icon_24.svg

<svg width="24" height="24" viewBox="0 0 24 24" fill="none" xmlns="http://www.w3.org/2000/svg">
<path d="M22.25 0.75H1.75C1.19772 0.75 0.75 1.19772 0.75 1.75V22.25C0.75 22.8023 1.19772 23.25 1.75 23.25H22.25C22.8023 23.25 23.25 22.8023 23.25 22.25V1.75C23.25 1.19772 22.8023 0.75 22.25 0.75Z" stroke="#71717A" stroke-width="1.5" stroke-linecap="round" stroke-linejoin="round"/>
<path d="M6 23.25V10.5C6 10.3011 6.07902 10.1103 6.21967 9.96967C6.36032 9.82902 6.55109 9.75 6.75 9.75H17.25C17.4489 9.75 17.6397 9.82902 17.7803 9.96967C17.921 10.1103 18 10.3011 18 10.5V23.2101" stroke="#71717A" stroke-width="1.5" stroke-linecap="round" stroke-linejoin="round"/>
<path d="M12 9.75V23.25" stroke="#71717A" stroke-width="1.5" stroke-linecap="round" stroke-linejoin="round"/>
<path d="M14.0156 4.02124L15.4997 5.99999L16.9838 4.02124" stroke="#71717A" stroke-width="1.5" stroke-linecap="round" stroke-linejoin="round"/>
<path d="M7.04247 5.94302L8.49975 3.99999L9.95703 5.94302" stroke="#71717A" stroke-width="1.5" stroke-linecap="round" stroke-linejoin="round"/>
</svg>

<svg xmlns="http://www.w3.org/2000/svg" width="24" height="24" fill="none" viewBox="0 0 24 24">
  <path stroke="#3F3F46" stroke-linecap="round" stroke-linejoin="round" stroke-width="1.5"
    d="M22.25.75H1.75a1 1 0 0 0-1 1v20.5a1 1 0 0 0 1 1h20.5a1 1 0 0 0 1-1V1.75a1 1 0 0 0-1-1Z" />
  <path stroke="#3F3F46" stroke-linecap="round" stroke-linejoin="round" stroke-width="1.5"
    d="M6 23.25V10.5a.75.75 0 0 1 .75-.75h10.5a.75.75 0 0 1 .75.75v12.625M12 9.75v13.5M14.013 4.017 15.5 6l1.488-1.983M9.99 5.987 8.5 4 7.01 5.987" />
</svg>
